icons/caddy-light.svg

<svg width="256" height="256" viewBox="0 0 256 256" fill="none" xmlns="http://www.w3.org/2000/svg">
<g clip-path="url(#clip0_727_23)">
<path d="M196 0H60C26.8629 0 0 26.8629 0 60V196C0 229.137 26.8629 256 60 256H196C229.137 256 256 229.137 256 196V60C256 26.8629 229.137 0 196 0Z" fill="#F4F2ED"/>
<path d="M218.325 101.194C220.961 114.082 220.711 126.799 218.537 139.002C216.331 151.383 211.851 163.09 205.483 173.682C202.947 177.905 200.143 181.964 197.065 185.825C193.997 189.65 190.682 193.303 187.101 196.708C176.572 206.727 163.815 214.705 149.014 219.238C137.299 222.939 125.44 224.324 113.879 223.547C101.702 222.715 89.9249 219.608 79.0603 214.493L78 216.541C88.8208 222.768 100.773 226.946 113.301 228.85C125.58 230.722 138.361 230.341 151.206 227.47C167.871 223.552 182.712 215.876 194.855 205.353C199.059 201.713 202.909 197.695 206.386 193.404C209.874 189.076 212.992 184.46 215.654 179.593C222.253 167.551 226.459 154.139 227.65 140.219C228.784 126.993 227.164 113.374 222.749 100L218.325 101.194Z" fill="#1F88C0"/>
<path d="M49.6699 190.599C44.8085 185.286 40.4619 179.413 36.8568 172.973C33.3437 166.692 30.5451 159.919 28.4599 152.736C27.6608 149.145 27.0466 145.591 26.6875 142.018C25.2216 127.401 27.5947 113.203 32.2564 99.9768C34.7554 92.8809 38.0832 86.1693 41.8949 79.7324C46.9549 71.1782 52.9652 63.1777 60.2429 56.2521C70.9471 46.0718 83.934 37.9571 99.0237 33.3189C111.308 29.5487 123.752 28.1585 135.824 29.274C144.21 30.0453 152.434 31.8692 160.148 34.9235C168.877 38.3794 176.917 43.3991 184.157 49.3566C191.275 55.212 197.475 62.1873 202.696 69.9461C203.383 70.9743 203.839 72.1482 204.692 73.0478C205.349 73.7302 206.107 73.999 206.879 74.5498L210 72.5712C209.812 71.5954 209.827 70.7668 209.417 69.8664C208.879 68.6809 207.862 67.7916 207.055 66.7788C198.53 56.0833 187.995 47.4051 176.239 40.871C171.231 38.0866 165.995 35.7336 160.631 33.7004C154.709 31.4463 148.617 29.5912 142.352 28.2868C128.041 25.3128 112.93 25.0763 97.7422 28.546C81.2768 32.3064 66.5957 39.7298 54.5682 49.9777C46.2037 57.1095 38.9929 65.515 33.6295 74.9748C29.6044 82.0746 26.6594 89.7773 24.7015 97.7381C21.1797 112.074 21.1516 127.243 24.323 142.38C25.0754 145.966 25.95 149.536 27.0777 153.104C28.908 160.507 31.5584 167.49 34.8009 174.043C38.1728 180.867 42.1961 187.212 46.8591 193L49.6699 190.599Z" fill="#1F88C0"/>
<path d="M183.26 116C183.26 116 185.936 113.461 189.273 110.128C195.137 104.266 203 96.0741 203 96.0741L200.421 93C200.421 93 191.243 99.6329 184.632 104.603C180.884 107.444 178 109.739 178 109.739L183.26 116Z" fill="#1F88C0"/>
<path d="M118.87 150C118.87 150 104.534 158.597 94.2393 165.285C88.4096 169.07 84 172.249 84 172.249L93.1407 184C93.1407 184 97.252 180.444 102.312 175.667C111.239 167.221 123 155.297 123 155.297L118.87 150Z" fill="#1F88C0"/>
<path d="M93 90.5C93 72.5507 107.551 58 125.5 58V58C143.449 58 158 72.5507 158 90.5V122H93V90.5Z" fill="#22B638"/>
<path d="M98 91.5C98 76.3122 110.312 64 125.5 64V64C140.688 64 153 76.3122 153 91.5V119H98V91.5Z" fill="#F4F2ED"/>
<rect x="73" y="115" width="104" height="76" rx="10" fill="#22B638"/>
<rect x="81" y="123" width="88" height="60" rx="2" fill="#F4F2ED"/>
<rect x="64" y="158" width="47" height="35" fill="#F4F2ED"/>
<circle cx="70" cy="193" r="28" fill="#1F88C0"/>
<ellipse cx="70" cy="193.5" rx="19" ry="19.5" fill="#F4F2ED"/>
<circle cx="216" cy="85" r="18" fill="#1F88C0"/>
<circle cx="216" cy="85" r="13" fill="#F4F2ED"/>
</g>
<defs>
<clipPath id="clip0_727_23">
<rect width="256" height="256" fill="white"/>
</clipPath>
</defs>
</svg>

<svg xmlns="http://www.w3.org/2000/svg" width="256" height="256" fill="none"><g clip-path="url(#clip0_727_23)"><path fill="#F4F2ED" d="M196 0H60C26.863 0 0 26.863 0 60v136c0 33.137 26.863 60 60 60h136c33.137 0 60-26.863 60-60V60c0-33.137-26.863-60-60-60"/><path fill="#1F88C0" d="M218.325 101.194c2.636 12.888 2.386 25.605.212 37.808-2.206 12.381-6.686 24.088-13.054 34.68a112 112 0 0 1-8.418 12.143c-3.068 3.825-6.383 7.478-9.964 10.883-10.529 10.019-23.286 17.997-38.087 22.53-11.715 3.701-23.574 5.086-35.135 4.309a97.2 97.2 0 0 1-34.819-9.054L78 216.541c10.82 6.227 22.773 10.405 35.301 12.309 12.279 1.872 25.06 1.491 37.905-1.38 16.665-3.918 31.506-11.594 43.649-22.117a94.4 94.4 0 0 0 11.531-11.949c3.488-4.328 6.606-8.944 9.268-13.811 6.599-12.042 10.805-25.454 11.996-39.374 1.134-13.226-.486-26.845-4.901-40.219zM49.67 190.599c-4.861-5.313-9.208-11.186-12.813-17.626-3.513-6.281-6.312-13.054-8.397-20.237-.8-3.591-1.413-7.145-1.773-10.718-1.465-14.617.908-28.815 5.57-42.041 2.498-7.096 5.826-13.808 9.638-20.245 5.06-8.554 11.07-16.554 18.348-23.48 10.704-10.18 23.691-18.295 38.78-22.933 12.285-3.77 24.729-5.16 36.801-4.045 8.386.771 16.61 2.595 24.324 5.65 8.729 3.455 16.769 8.475 24.009 14.433 7.118 5.855 13.318 12.83 18.539 20.59.687 1.027 1.143 2.201 1.996 3.1.657.683 1.415.952 2.187 1.503L210 72.57c-.188-.976-.173-1.804-.583-2.705-.538-1.185-1.555-2.074-2.362-3.087-8.525-10.696-19.06-19.374-30.816-25.908-5.008-2.784-10.244-5.137-15.608-7.17-5.922-2.255-12.014-4.11-18.279-5.414-14.311-2.974-29.422-3.21-44.61.259-16.465 3.76-31.146 11.184-43.174 21.432-8.364 7.131-15.575 15.537-20.938 24.997-4.026 7.1-6.97 14.802-8.929 22.763-3.521 14.336-3.55 29.505-.378 44.642.752 3.586 1.627 7.156 2.755 10.724 1.83 7.403 4.48 14.386 7.723 20.939 3.372 6.824 7.395 13.169 12.058 18.957zM183.26 116s2.676-2.539 6.013-5.872C195.137 104.266 203 96.074 203 96.074L200.421 93s-9.178 6.633-15.789 11.603a397 397 0 0 0-6.632 5.136zm-64.39 34s-14.336 8.597-24.63 15.285C88.41 169.07 84 172.249 84 172.249L93.14 184s4.112-3.556 9.172-8.333c8.927-8.446 20.688-20.37 20.688-20.37z"/><path fill="#22B638" d="M93 90.5C93 72.55 107.551 58 125.5 58S158 72.55 158 90.5V122H93z"/><path fill="#F4F2ED" d="M98 91.5C98 76.312 110.312 64 125.5 64S153 76.312 153 91.5V119H98z"/><rect width="104" height="76" x="73" y="115" fill="#22B638" rx="10"/><rect width="88" height="60" x="81" y="123" fill="#F4F2ED" rx="2"/><path fill="#F4F2ED" d="M64 158h47v35H64z"/><circle cx="70" cy="193" r="28" fill="#1F88C0"/><ellipse cx="70" cy="193.5" fill="#F4F2ED" rx="19" ry="19.5"/><circle cx="216" cy="85" r="18" fill="#1F88C0"/><circle cx="216" cy="85" r="13" fill="#F4F2ED"/></g><defs><clipPath id="clip0_727_23"><path fill="#fff" d="M0 0h256v256H0z"/></clipPath></defs></svg>
